X: 3397
M: 6/8
L: 1/8
K: D
uA |\
vF2vA uA2uB | A2B d2e | f2d g2f | f3 e2A |\
|: d |\
f2f d2d | g3 e2e | f2d g2f | f3 e2A |\


